<?xml version="1.0" encoding="UTF-8"?>
<map version="1.10" tiledversion="1.12.2" orientation="orthogonal" renderorder="right-down" width="30" height="20" tilewidth="16" tileheight="16" infinite="0" nextlayerid="2" nextobjectid="1">
 <editorsettings>
  <export target="world.json" format="json"/>
 </editorsettings>
 <tileset firstgid="1" source="tileset.tsx"/>
 <layer id="1" name="Tile Layer 1" width="30" height="20">
  <properties>
   <property name="has_collision" type="bool" value="true"/>
   <property name="texture_name" value="textures/tilemap.png"/>
  </properties>
  <data encoding="csv">
0,0,0,0,0,0,0,0,0,0,0,0,0,0,0,0,0,0,0,0,0,0,0,0,0,0,0,0,0,0,
0,0,0,0,0,0,0,0,0,0,0,0,0,0,0,0,0,0,0,0,0,0,0,0,0,0,0,0,0,0,
0,0,0,0,0,0,0,0,0,0,0,0,0,0,0,0,0,0,0,0,0,0,0,0,0,0,0,0,0,0,
0,0,0,0,0,0,0,0,0,0,0,0,0,0,0,0,0,0,0,0,0,0,0,0,0,0,0,0,0,0,
0,0,0,0,0,0,0,0,0,0,0,0,0,0,0,0,0,0,0,0,0,0,0,0,0,0,0,0,0,0,
0,0,0,0,0,0,0,0,0,0,0,0,0,0,0,0,0,0,0,0,0,0,0,0,0,0,0,0,0,0,
0,0,0,0,3,4,4,4,4,4,4,4,4,4,5,0,0,0,0,0,0,0,0,0,0,0,0,0,0,0,
254,252,4,4,28,29,29,29,29,29,29,29,29,29,56,0,0,0,0,0,0,0,0,0,0,0,253,254,254,254,
305,330,104,104,328,304,54,54,54,54,54,54,54,53,56,0,0,0,0,0,0,0,0,0,0,0,327,328,329,329,
354,105,0,0,52,53,53,53,53,53,53,54,54,53,56,0,0,0,0,0,0,0,0,0,0,0,0,327,354,354,
0,0,0,0,103,104,104,104,104,104,78,53,54,53,56,0,0,0,0,0,0,0,0,0,0,0,0,0,0,0,
0,0,0,0,0,0,0,0,0,0,103,78,53,53,30,4,4,4,4,4,5,0,0,0,0,0,0,0,0,0,
0,0,0,0,0,0,0,0,0,0,0,52,53,54,53,53,53,53,53,80,81,0,0,0,0,0,0,0,0,0,
0,0,0,0,0,0,0,0,0,0,0,103,104,104,104,104,104,104,104,105,0,0,0,0,0,0,0,0,0,0,
0,0,0,0,0,0,0,0,0,0,0,0,0,0,0,0,0,0,0,0,0,0,0,0,0,0,0,0,0,0,
0,0,0,0,0,0,0,0,0,0,0,0,0,0,0,0,0,0,0,0,0,0,0,0,0,0,0,0,0,0,
0,0,0,0,0,0,0,0,0,0,0,0,0,0,0,0,0,0,0,0,0,0,0,0,0,0,0,0,0,0,
0,0,0,0,0,0,0,0,0,0,0,0,0,0,0,0,0,0,0,0,0,0,0,378,379,379,379,380,0,0,
380,0,0,0,0,0,0,0,0,0,0,0,0,0,0,0,0,0,0,0,0,0,378,403,0,0,0,405,379,379,
405,379,380,0,0,0,0,0,0,0,0,0,0,0,0,0,0,0,0,378,379,379,403,0,0,0,0,0,0,0
</data>
 </layer>
</map>
